svgs/solid/briefcase.svg

<svg xmlns="http://www.w3.org/2000/svg" viewBox="0 0 512 512"><!-- Font Awesome Pro 6.0.0-alpha2 by @fontawesome - https://fontawesome.com License - https://fontawesome.com/license (Commercial License) --><path d="M320 336C320 344.844 312.844 352 304 352H208C199.156 352 192 344.844 192 336V288H0V432C0 457.594 22.406 480 48 480H464C489.594 480 512 457.594 512 432V288H320V336ZM464 96H384V48C384 22.406 361.594 0 336 0H176C150.406 0 128 22.406 128 48V96H48C22.406 96 0 118.406 0 144V256H512V144C512 118.406 489.594 96 464 96ZM336 96H176V48H336V96Z"/></svg>

<svg xmlns="http://www.w3.org/2000/svg" viewBox="0 0 512 512"><!--! Font Awesome Pro 6.0.0-alpha3 by @fontawesome - https://fontawesome.com License - https://fontawesome.com/license (Commercial License) --><path d="M320 336c0 8.844-7.156 16-16 16h-96C199.2 352 192 344.8 192 336V288H0v144C0 457.6 22.41 480 48 480h416c25.59 0 48-22.41 48-48V288h-192V336zM464 96H384V48C384 22.41 361.6 0 336 0h-160C150.4 0 128 22.41 128 48V96H48C22.41 96 0 118.4 0 144V256h512V144C512 118.4 489.6 96 464 96zM336 96h-160V48h160V96z"/></svg>
